svg/emoji_u1f68c.svg

<svg enable-background="new 0 0 128 128" viewBox="0 0 128 128" xmlns="http://www.w3.org/2000/svg" xmlns:xlink="http://www.w3.org/1999/xlink"><linearGradient id="c" x1="64" x2="64" y1="51.167" y2="114.17" gradientUnits="userSpaceOnUse"><stop stop-color="#eee" offset=".1157"/><stop stop-color="#EAEAEA" offset=".3646"/><stop stop-color="#ddd" offset=".6222"/><stop stop-color="#C9C9C9" offset=".883"/><stop stop-color="#BDBDBD" offset="1"/></linearGradient><path d="m118 115.75h-108c-3.3 0-6-2.7-6-6v-55.75c0-3.3 2.7-6 6-6h108c3.3 0 6 2.7 6 6v55.75c0 3.3-2.7 6-6 6z" fill="url(#c)"/><rect x="22.86" y="88.25" width="101.21" height="7.75" fill="#66BB6A"/><defs><path id="b" d="m118 115.75h-108c-3.3 0-6-2.7-6-6v-55.75c0-3.3 2.7-6 6-6h108c3.3 0 6 2.7 6 6v55.75c0 3.3-2.7 6-6 6z"/></defs><clipPath id="a"><use xlink:href="#b"/></clipPath><path d="m12 92.13h-22.67v-35.92h22.67c2.2 0 4 1.8 4 4v27.92c0 2.2-1.8 4-4 4z" clip-path="url(#a)" fill="#4FC3F7"/><g clip-path="url(#a)" opacity=".2"><path d="m12 58.21c1.1 0 2 0.9 2 2v27.92c0 1.1-0.9 2-2 2h-20.67v-31.92h20.67m0-2h-22.67v35.92h22.67c2.2 0 4-1.8 4-4v-27.92c0-2.2-1.8-4-4-4z" fill="#424242"/></g><path d="m53.17 83.5h-26.34c-2.2 0-4-1.8-4-4v-19.29c0-2.2 1.8-4 4-4h26.33c2.2 0 4 1.8 4 4v19.29c0.01 2.2-1.79 4-3.99 4z" fill="#4FC3F7"/><path d="m112 83.5h-44c-2.2 0-4-1.8-4-4v-19.29c0-2.2 1.8-4 4-4h44c2.21 0 4 1.79 4 4v19.29c0 2.21-1.79 4-4 4z" fill="#4FC3F7"/><path d="m6.84 105.62h-0.59c-1.24 0-2.25-1.01-2.25-2.25v-7c0-1.24 1.01-2.25 2.25-2.25h0.59c1.24 0 2.25 1.01 2.25 2.25v7c0 1.24-1.01 2.25-2.25 2.25z" fill="#FFEE58"/><g opacity=".2"><path d="m118 51c1.65 0 3 1.35 3 3v55.75c0 1.65-1.35 3-3 3h-108c-1.65 0-3-1.35-3-3v-55.75c0-1.65 1.35-3 3-3h108m0-3h-108c-3.3 0-6 2.7-6 6v55.75c0 3.3 2.7 6 6 6h108c3.3 0 6-2.7 6-6v-55.75c0-3.3-2.7-6-6-6z" fill="#424242"/></g><circle cx="28" cy="112" r="12" fill="#4E342E"/><g opacity=".2"><path d="m28 102c5.51 0 10 4.49 10 10s-4.49 10-10 10-10-4.49-10-10 4.49-10 10-10m0-2c-6.63 0-12 5.37-12 12s5.37 12 12 12 12-5.37 12-12-5.37-12-12-12z" fill="#eee"/></g><circle cx="28" cy="112" r="5.14" fill="#BDBDBD"/><circle cx="102" cy="112" r="12" fill="#4E342E"/><g opacity=".2"><path d="m102 102c5.51 0 10 4.49 10 10s-4.49 10-10 10-10-4.49-10-10 4.49-10 10-10m0-2c-6.63 0-12 5.37-12 12s5.37 12 12 12 12-5.37 12-12-5.37-12-12-12z" fill="#eee"/></g><circle cx="102" cy="112" r="5.14" fill="#BDBDBD"/><g opacity=".2"><path d="m53.17 58.21c1.1 0 2 0.9 2 2v19.29c0 1.1-0.9 2-2 2h-26.34c-1.1 0-2-0.9-2-2v-19.29c0-1.1 0.9-2 2-2h26.34m0-2h-26.34c-2.2 0-4 1.8-4 4v19.29c0 2.2 1.8 4 4 4h26.33c2.2 0 4-1.8 4-4v-19.29c0.01-2.2-1.79-4-3.99-4z" fill="#424242"/></g><g opacity=".2"><path d="m112 58.21c1.1 0 2 0.9 2 2v19.29c0 1.1-0.9 2-2 2h-44c-1.1 0-2-0.9-2-2v-19.29c0-1.1 0.9-2 2-2h44m0-2h-44c-2.2 0-4 1.8-4 4v19.29c0 2.2 1.8 4 4 4h44c2.21 0 4-1.79 4-4v-19.29c0-2.21-1.79-4-4-4z" fill="#424242"/></g></svg>

<svg width="128" height="128" style="enable-background:new 0 0 128 128;" xmlns="http://www.w3.org/2000/svg" xmlns:xlink="http://www.w3.org/1999/xlink">
  <linearGradient id="SVGID_1_" gradientUnits="userSpaceOnUse" x1="64" x2="64" y1="51.1667" y2="114.1702">
    <stop offset="0.1157" style="stop-color:#EEEEEE"/>
    <stop offset="0.3646" style="stop-color:#EAEAEA"/>
    <stop offset="0.6222" style="stop-color:#DDDDDD"/>
    <stop offset="0.883" style="stop-color:#C9C9C9"/>
    <stop offset="1" style="stop-color:#BDBDBD"/>
  </linearGradient>
  <path d="M118,115.75H10c-3.3,0-6-2.7-6-6V54c0-3.3,2.7-6,6-6h108c3.3,0,6,2.7,6,6v55.75 C124,113.05,121.3,115.75,118,115.75z" style="fill:url(#SVGID_1_);"/>
  <rect height="7.75" style="fill:#66BB6A;" width="101.21" x="22.86" y="88.25"/>
  <g>
    <defs>
      <path id="SVGID_2_" d="M118,115.75H10c-3.3,0-6-2.7-6-6V54c0-3.3,2.7-6,6-6h108c3.3,0,6,2.7,6,6v55.75 C124,113.05,121.3,115.75,118,115.75z"/>
    </defs>
    <clipPath id="SVGID_3_">
      <use style="overflow:visible;" xlink:href="#SVGID_2_"/>
    </clipPath>
    <path d="M12,92.13h-22.67V56.21H12c2.2,0,4,1.8,4,4v27.92 C16,90.33,14.2,92.13,12,92.13z" style="clip-path:url(#SVGID_3_);fill:#4FC3F7;"/>
    <g style="opacity:0.2;clip-path:url(#SVGID_3_);">
      <path d="M12,58.21c1.1,0,2,0.9,2,2v27.92c0,1.1-0.9,2-2,2H-8.67V58.21H12 M12,56.21h-22.67v35.92H12 c2.2,0,4-1.8,4-4V60.21C16,58.01,14.2,56.21,12,56.21L12,56.21z" style="fill:#424242;"/>
    </g>
  </g>
  <path d="M53.17,83.5H26.83c-2.2,0-4-1.8-4-4V60.21c0-2.2,1.8-4,4-4h26.33c2.2,0,4,1.8,4,4V79.5 C57.17,81.7,55.37,83.5,53.17,83.5z" style="fill:#4FC3F7;"/>
  <path d="M112,83.5H68c-2.2,0-4-1.8-4-4V60.21c0-2.2,1.8-4,4-4h44c2.21,0,4,1.79,4,4V79.5 C116,81.71,114.21,83.5,112,83.5z" style="fill:#4FC3F7;"/>
  <path d="M6.84,105.62H6.25c-1.24,0-2.25-1.01-2.25-2.25v-7c0-1.24,1.01-2.25,2.25-2.25h0.59 c1.24,0,2.25,1.01,2.25,2.25v7C9.09,104.61,8.08,105.62,6.84,105.62z" style="fill:#FFEE58;"/>
  <g style="opacity:0.2;">
    <path d="M118,51c1.65,0,3,1.35,3,3v55.75c0,1.65-1.35,3-3,3H10c-1.65,0-3-1.35-3-3V54c0-1.65,1.35-3,3-3H118 M118,48H10c-3.3,0-6,2.7-6,6v55.75c0,3.3,2.7,6,6,6h108c3.3,0,6-2.7,6-6V54C124,50.7,121.3,48,118,48L118,48z" style="fill:#424242;"/>
  </g>
  <g>
    <g>
      <circle cx="28" cy="112" r="12" style="fill:#4E342E;"/>
      <g style="opacity:0.2;">
        <path d="M28,102c5.51,0,10,4.49,10,10s-4.49,10-10,10s-10-4.49-10-10S22.49,102,28,102 M28,100 c-6.63,0-12,5.37-12,12c0,6.63,5.37,12,12,12s12-5.37,12-12C40,105.37,34.63,100,28,100L28,100z" style="fill:#EEEEEE;"/>
      </g>
    </g>
    <circle cx="28" cy="112" r="5.14" style="fill:#BDBDBD;"/>
  </g>
  <g>
    <g>
      <circle cx="102" cy="112" r="12" style="fill:#4E342E;"/>
      <g style="opacity:0.2;">
        <path d="M102,102c5.51,0,10,4.49,10,10s-4.49,10-10,10s-10-4.49-10-10S96.49,102,102,102 M102,100 c-6.63,0-12,5.37-12,12c0,6.63,5.37,12,12,12c6.63,0,12-5.37,12-12C114,105.37,108.63,100,102,100L102,100z" style="fill:#EEEEEE;"/>
      </g>
    </g>
    <circle cx="102" cy="112" r="5.14" style="fill:#BDBDBD;"/>
  </g>
  <g style="opacity:0.2;">
    <path d="M53.17,58.21c1.1,0,2,0.9,2,2V79.5c0,1.1-0.9,2-2,2H26.83c-1.1,0-2-0.9-2-2V60.21c0-1.1,0.9-2,2-2 H53.17 M53.17,56.21H26.83c-2.2,0-4,1.8-4,4V79.5c0,2.2,1.8,4,4,4h26.33c2.2,0,4-1.8,4-4V60.21 C57.17,58.01,55.37,56.21,53.17,56.21L53.17,56.21z" style="fill:#424242;"/>
  </g>
  <g style="opacity:0.2;">
    <path d="M112,58.21c1.1,0,2,0.9,2,2V79.5c0,1.1-0.9,2-2,2H68c-1.1,0-2-0.9-2-2V60.21c0-1.1,0.9-2,2-2H112 M112,56.21H68c-2.2,0-4,1.8-4,4V79.5c0,2.2,1.8,4,4,4h44c2.21,0,4-1.79,4-4V60.21C116,58,114.21,56.21,112,56.21L112,56.21z" style="fill:#424242;"/>
  </g>
</svg>
